website/public/Images/svg/governance.svg

<svg width="24" height="32" viewBox="0 0 24 32" fill="none" xmlns="http://www.w3.org/2000/svg">
<path fill-rule="evenodd" clip-rule="evenodd" d="M2.8125 32H21.5625C23.1134 32 24.375 30.7384 24.375 29.1875V9.375H17.8125C16.2616 9.375 15 8.11338 15 6.5625V0H2.8125C1.26163 0 0 1.26163 0 2.8125V29.1875C0 30.7384 1.26163 32 2.8125 32ZM14.5077 11.2444C14.414 11.1584 14.3051 11.0928 14.1874 11.0513C14.0697 11.0098 13.9454 10.9932 13.8217 11.0025C13.6979 11.0119 13.5771 11.0469 13.4662 11.1057C13.3552 11.1645 13.2563 11.2458 13.175 11.3451C13.0938 11.4444 13.0318 11.5596 12.9926 11.6843L9.21477 23.6838C9.13561 23.9355 9.15413 24.2102 9.26625 24.4474C9.37837 24.6846 9.5749 24.865 9.81262 24.9488C10.0503 25.0326 10.3097 25.013 10.5338 24.8943C10.7579 24.7756 10.9282 24.5675 11.0074 24.3158L14.7852 12.3162C14.8245 12.1916 14.8401 12.06 14.8313 11.929C14.8225 11.798 14.7893 11.6701 14.7338 11.5526C14.6783 11.4352 14.6015 11.3304 14.5077 11.2444ZM8.22193 15.0001C8.22193 14.735 8.12246 14.4807 7.9454 14.2932C7.76829 14.1057 7.5281 14.0004 7.27767 14.0004C7.02723 14.0004 6.78704 14.1057 6.60993 14.2932L3.77653 17.2931C3.59947 17.4806 3.5 17.7349 3.5 18C3.5 18.2652 3.59947 18.5195 3.77653 18.707L6.60993 21.7069C6.69705 21.8024 6.80127 21.8786 6.9165 21.931C7.03173 21.9834 7.15566 22.011 7.28106 22.0121C7.40647 22.0133 7.53084 21.988 7.64691 21.9377C7.76298 21.8874 7.86843 21.8132 7.95711 21.7193C8.04579 21.6254 8.11592 21.5138 8.16341 21.3909C8.2109 21.268 8.23479 21.1363 8.2337 21.0035C8.23261 20.8707 8.20656 20.7395 8.15706 20.6175C8.10756 20.4955 8.03561 20.3852 7.9454 20.2929L5.77974 18L7.9454 15.7071C8.12246 15.5196 8.22193 15.2653 8.22193 15.0001ZM16.7223 14.0004C16.4719 14.0004 16.2317 14.1057 16.0546 14.2932C15.8775 14.4807 15.7781 14.735 15.7781 15.0001C15.7781 15.2653 15.8775 15.5196 16.0546 15.7071L18.2203 18L16.0546 20.2929C15.9644 20.3852 15.8924 20.4955 15.8429 20.6175C15.7934 20.7395 15.7674 20.8707 15.7663 21.0035C15.7652 21.1363 15.7891 21.268 15.8366 21.3909C15.8841 21.5138 15.9542 21.6254 16.0429 21.7193C16.1316 21.8132 16.237 21.8874 16.3531 21.9377C16.4692 21.988 16.5935 22.0133 16.7189 22.0121C16.8443 22.011 16.9683 21.9834 17.0835 21.931C17.1987 21.8786 17.3029 21.8024 17.3901 21.7069L20.2235 18.707C20.4005 18.5195 20.5 18.2652 20.5 18C20.5 17.7349 20.4005 17.4806 20.2235 17.2931L17.3901 14.2932C17.213 14.1057 16.9728 14.0004 16.7223 14.0004Z" fill="url(#paint0_linear)"/>
<defs>
<linearGradient id="paint0_linear" x1="12.1875" y1="0" x2="12.1875" y2="32" gradientUnits="userSpaceOnUse">
<stop stop-color="#184A85"/>
<stop offset="1" stop-color="#8DD6E4"/>
</linearGradient>
</defs>
</svg>

<svg xmlns="http://www.w3.org/2000/svg" width="24" height="32" fill="none" xmlns:v="https://vecta.io/nano"><path fill-rule="evenodd" d="M2.813 32h18.75c1.551 0 2.813-1.262 2.813-2.812V9.375h-6.562C16.262 9.375 15 8.113 15 6.563V0H2.813C1.262 0 0 1.262 0 2.813v26.375C0 30.738 1.262 32 2.813 32zm11.695-20.756c-.094-.086-.203-.152-.32-.193s-.242-.058-.366-.049-.245.044-.355.103-.21.14-.291.239a1.02 1.02 0 0 0-.182.339l-3.778 12c-.079.252-.061.526.051.764s.309.418.546.501.497.064.721-.054.394-.327.474-.579l3.778-12c.039-.125.055-.256.046-.387s-.042-.259-.098-.376-.132-.222-.226-.308zM8.222 15a1.03 1.03 0 0 0-.277-.707.92.92 0 0 0-.668-.293.92.92 0 0 0-.668.293l-2.833 3A1.03 1.03 0 0 0 3.5 18a1.03 1.03 0 0 0 .277.707l2.833 3c.087.095.191.172.307.224a.9.9 0 0 0 .73.007c.116-.05.222-.125.31-.218s.159-.206.206-.328a1.05 1.05 0 0 0-.006-.773c-.05-.122-.121-.232-.212-.325L5.78 18l2.166-2.293A1.03 1.03 0 0 0 8.222 15zm8.5-1a.92.92 0 0 0-.668.293 1.03 1.03 0 0 0-.277.707 1.03 1.03 0 0 0 .277.707L18.22 18l-2.166 2.293c-.09.092-.162.203-.212.325a1.05 1.05 0 0 0-.006.773c.047.123.118.235.206.328s.194.168.31.218a.9.9 0 0 0 .73-.007c.115-.052.219-.129.307-.224l2.833-3A1.03 1.03 0 0 0 20.5 18a1.03 1.03 0 0 0-.276-.707l-2.833-3a.92.92 0 0 0-.668-.293z" fill="url(#A)"/><defs><linearGradient id="A" x1="12.188" y1="0" x2="12.188" y2="32" gradientUnits="userSpaceOnUse"><stop stop-color="#184a85"/><stop offset="1" stop-color="#8dd6e4"/></linearGradient></defs></svg>
